static/images/right-arrow-yellow.svg

<svg width="30" height="30" viewBox="0 0 30 30" fill="none" xmlns="http://www.w3.org/2000/svg">
<path d="M20 14.9955C20 15.3606 19.8711 15.6633 19.5874 15.9482L12.9685 22.6528C12.7536 22.8843 12.4785 23 12.1605 23C11.5158 23 11 22.4658 11 21.798C11 21.4597 11.1289 21.1658 11.361 20.9254L17.2407 14.9866L11.361 9.06566C11.1289 8.82526 11 8.52254 11 8.1931C11 7.52532 11.5158 7 12.1605 7C12.4871 7 12.7536 7.10684 12.9685 7.33834L19.5874 14.0428C19.8711 14.3278 19.9914 14.6305 20 14.9955Z" fill="#FAC33D"/>
</svg>

<svg xmlns="http://www.w3.org/2000/svg" width="30" height="30" fill="none"><path fill="#FAC33D" d="M20 14.995c0 .366-.129.668-.413.953l-6.618 6.705c-.215.231-.49.347-.808.347-.645 0-1.161-.534-1.161-1.202 0-.338.129-.632.361-.873l5.88-5.938-5.88-5.921A1.243 1.243 0 0 1 11 8.193C11 7.525 11.516 7 12.16 7c.327 0 .594.107.809.338l6.618 6.705c.284.285.404.588.413.953Z"/></svg>
